X:5712
T:Gan Ainm
R:Reel
S:
H:
N:
D:Session, Sligo Fleadh
Z:Adrian Scahill
M:4/4
L:1/8
K:D
EB^GB AGEe|dBBA Bdec|defd AGFA|GEFD EDB,A,|\
B,EEF G3A|(3Bcd GA (3Bcd ef|gfed (3efg fe|dBAF E4:||\
Beef gefd|BdAG FADA|Beef gefd|(3efe df efgf|\
edBc d3A|BedB AFDF|GBB2 AFDF|GBFB E4:||


